X:1
T:Title
%%score { 1 | 2 }
L:1/8
M:3/4
K:D
V:1 treble nm="Grand Piano"
V:2 bass 
V:1
 z2 z2[Q:1/4=82] DE | G3 F [A,CF][K:bass][G,CE] | [G,CE]2 [F,D]2[K:treble] [A,DF][A,EG] | %3
 [DGB]3 [DFA] [A,FA][A,EG] |[M:2/4] [A,DF]4 |[M:1/4] FF |[M:3/4] [Fd]3 [Fc] [FB][FA] | %7
 [FA]2 [EG]2 [EG][EG] | [Ee]3 [Fd] [Ec][DB] |[M:2/4] [A,CA]4 |[M:1/4] AA |[M:3/4] e3 d cB | %12
 B2 A2 AA | [Fd]3 [DF] [DG][DB] |[M:2/4] A4 |[M:1/4] AA |[M:3/4] B3 B cc | d2 A2 AG | %18
 F3 F [CG][CE] |[M:2/4] D4 |] %20
V:2
 z2 z2 [D,F,][D,G,D] | [D,B,D]3 [D,A,D] A,,A,, | A,,2 D,2 D,D, | D,3 D, C,C, |[M:2/4] D,4 | %5
[M:1/4] F,F, |[M:3/4] [B,,B,]3 [C,^A,] [D,B,][^D,B,] | [E,B,]2 [E,B,]2 [D,^A,][D,A,] | %8
 [C,A,]3 [D,A,] [E,A,][E,^G,] |[M:2/4] A,,4 |[M:1/4] A,A, | %11
[M:3/4][K:treble] [A,CG]3 [A,DG] [A,EG][A,DG] | [A,CG]2 [A,CG]2 [A,CG][A,CG] | %13
 [D,D]3 [=C,A,] [B,,G,][G,,G,] |[M:2/4] [D,F,D]4 |[M:1/4] [D,F,D][D,F,D] | %16
[M:3/4] [G,D]3 [G,D] [G,A,E][G,A,E] | [F,A,D]2 [F,A,D]2[K:treble] [G,B,F][G,B,E] | %18
 [A,E]3 [A,D] [A,,E,][A,,G,] |[M:2/4] [D,F,]4 |] %20

